storage/app/icons/phosphoricons/light/cable-car-light.svg

<svg xmlns="http://www.w3.org/2000/svg" fill="currentColor" viewBox="0 0 256 256"><path d="M245.91 31a6 6 0 0 0-7-4.85L15 66.1A6 6 0 0 0 16 78a6.5 6.5 0 0 0 1.07-.09L122 59.17V98H64a30 30 0 0 0-30 30v64a30 30 0 0 0 30 30h128a30 30 0 0 0 30-30v-64a30 30 0 0 0-30-30h-58V57l107.05-19.09a6 6 0 0 0 4.86-6.91M102 162v-52h52v52Zm-38-52h26v52H46v-34a18 18 0 0 1 18-18m128 100H64a18 18 0 0 1-18-18v-18h164v18a18 18 0 0 1-18 18m18-82v34h-44v-52h26a18 18 0 0 1 18 18"/></svg>

<svg xmlns="http://www.w3.org/2000/svg" viewBox="0 0 256 256" fill="currentColor"><path d="M245.91,31a6,6,0,0,0-7-4.85L15,66.1A6,6,0,0,0,16,78a6.53,6.53,0,0,0,1.07-.09L122,59.17V98H64a30,30,0,0,0-30,30v64a30,30,0,0,0,30,30H192a30,30,0,0,0,30-30V128a30,30,0,0,0-30-30H134V57L241.05,37.91A6,6,0,0,0,245.91,31ZM102,162V110h52v52ZM64,110H90v52H46V128A18,18,0,0,1,64,110ZM192,210H64a18,18,0,0,1-18-18V174H210v18A18,18,0,0,1,192,210Zm18-82v34H166V110h26A18,18,0,0,1,210,128Z"/></svg>
